svg/emoji_u1f95a.svg

<?xml version="1.0" encoding="UTF-8"?>
<svg width="128" height="128" enable-background="new 0 0 128 128" xmlns="http://www.w3.org/2000/svg" xmlns:xlink="http://www.w3.org/1999/xlink"><radialGradient id="c" cx="46.333" cy="39.667" r="77.333" gradientUnits="userSpaceOnUse"><stop stop-color="#FFDCB5" offset="0"/><stop stop-color="#F3CA9C" offset=".2414"/><stop stop-color="#E4B37D" offset=".6022"/><stop stop-color="#DEAA71" offset=".803"/><stop stop-color="#E0AB7B" offset=".9901"/></radialGradient><path d="m107.3 66.42c-1.62-21.91-16.43-59.83-44.09-59.83-25.36 0-42.69 37.93-44.09 59.82-2.81 44 23.67 57.27 44.09 57.27 19.9 0.01 47.23-14.57 44.09-57.26z" fill="url(#c)"/><g opacity=".2"><path d="m63.21 9.59c14.09 0 23.68 11.01 29.24 20.24 7.68 12.74 11.16 27.37 11.85 36.8 1.29 17.49-2.74 31.8-11.64 41.38-7.37 7.94-18.39 12.68-29.46 12.68-11.5 0-22.24-4.41-29.45-12.1-8.9-9.49-12.82-23.62-11.65-41.98 0.72-11.26 5.67-25.67 12.61-36.72 4.78-7.58 14.81-20.3 28.5-20.3m0-3c-25.36 0-42.69 37.93-44.09 59.82-2.81 44 23.67 57.27 44.09 57.27 19.9 0 47.23-14.57 44.09-57.27-1.62-21.9-16.43-59.82-44.09-59.82z" fill="#424242"/></g><g display="none"><g display="inline"><g opacity=".6"><circle cx="64" cy="64" r="28" fill="none" opacity=".61" stroke="#000" stroke-miterlimit="10" stroke-width=".2625"/><line x1="83.5" x2="83.5" y2="128" fill="none" opacity=".61" stroke="#000" stroke-miterlimit="10"/><line x1="43.5" x2="43.5" y2="128" fill="none" opacity=".61" stroke="#000" stroke-miterlimit="10"/><line x1="63.5" x2="63.5" y2="128" fill="none" opacity=".61" stroke="#000" stroke-miterlimit="10"/><line x1="128" y1="64.5" y2="64.5" fill="none" opacity=".61" stroke="#000" stroke-miterlimit="10"/><line x1="128" y1="44.5" y2="44.5" fill="none" opacity=".61" stroke="#000" stroke-miterlimit="10"/><line x1="128" y1="83.5" y2="83.5" fill="none" opacity=".61" stroke="#000" stroke-miterlimit="10"/><line x1="128" y1="128" fill="none" opacity=".61" stroke="#000" stroke-miterlimit="10" stroke-width=".25"/><line x2="128" y1="128" fill="none" opacity=".61" stroke="#000" stroke-miterlimit="10" stroke-width=".25"/><g opacity=".61"><path d="M64,4.26c32.94,0,59.74,26.8,59.74,59.74S96.94,123.74,64,123.74S4.26,96.94,4.26,64S31.06,4.26,64,4.26 M64,4 C30.86,4,4,30.86,4,64s26.86,60,60,60s60-26.86,60-60S97.14,4,64,4L64,4z"/></g><path d="m115.5 108.47c0 4.43-3.59 8.03-8.03 8.03h-87.94c-4.43 0-8.03-3.59-8.03-8.03v-87.94c0-4.43 3.59-8.03 8.03-8.03h87.94c4.43 0 8.03 3.59 8.03 8.03v87.94z" fill="none" opacity=".61" stroke="#000" stroke-miterlimit="10"/><path d="m107.5 116.5c0 4.42-3.58 8-8 8h-72c-4.42 0-8-3.58-8-8v-104c0-4.42 3.58-8 8-8h72c4.42 0 8 3.58 8 8v104z" fill="none" opacity=".61" stroke="#000" stroke-miterlimit="10"/><path d="M123.5,98.27c0,5.65-4.58,10.23-10.23,10.23H13.73 c-5.65,0-10.23-4.58-10.23-10.23V30.73c0-5.65,4.58-10.23,10.23-10.23h99.54c5.65,0,10.23,4.58,10.23,10.23V98.27z" fill="none" opacity=".61" stroke="#000" stroke-miterlimit="10"/></g><g opacity=".2"><defs><rect id="b" width="128" height="128" opacity=".2"/></defs><clipPath id="a"><use xlink:href="#b"/></clipPath><g clip-path="url(#a)"><g fill="none" stroke="#000" stroke-miterlimit="10"><line x1="-28.5" x2="-28.5" y1="160" y2="-32"/><line x1="-24.5" x2="-24.5" y1="160" y2="-32"/><line x1="-20.5" x2="-20.5" y1="160" y2="-32"/><line x1="-16.5" x2="-16.5" y1="160" y2="-32"/><line x1="-12.5" x2="-12.5" y1="160" y2="-32"/><line x1="-8.5" x2="-8.5" y1="160" y2="-32"/><line x1="-4.5" x2="-4.5" y1="160" y2="-32"/><line x1="-.5" x2="-.5" y1="160" y2="-32"/><line x1="3.5" x2="3.5" y1="160" y2="-32"/><line x1="7.5" x2="7.5" y1="160" y2="-32"/><line x1="11.5" x2="11.5" y1="160" y2="-32"/><line x1="15.5" x2="15.5" y1="160" y2="-32"/><line x1="19.5" x2="19.5" y1="160" y2="-32"/><line x1="23.5" x2="23.5" y1="160" y2="-32"/><line x1="27.5" x2="27.5" y1="160" y2="-32"/><line x1="31.5" x2="31.5" y1="160" y2="-32"/><line x1="35.5" x2="35.5" y1="160" y2="-32"/><line x1="39.5" x2="39.5" y1="160" y2="-32"/><line x1="43.5" x2="43.5" y1="160" y2="-32"/><line x1="47.5" x2="47.5" y1="160" y2="-32"/><line x1="51.5" x2="51.5" y1="160" y2="-32"/><line x1="55.5" x2="55.5" y1="160" y2="-32"/><line x1="59.5" x2="59.5" y1="160" y2="-32"/><line x1="63.5" x2="63.5" y1="160" y2="-32"/><line x1="67.5" x2="67.5" y1="160" y2="-32"/><line x1="71.5" x2="71.5" y1="160" y2="-32"/><line x1="75.5" x2="75.5" y1="160" y2="-32"/><line x1="79.5" x2="79.5" y1="160" y2="-32"/><line x1="83.5" x2="83.5" y1="160" y2="-32"/><line x1="87.5" x2="87.5" y1="160" y2="-32"/><line x1="91.5" x2="91.5" y1="160" y2="-32"/><line x1="95.5" x2="95.5" y1="160" y2="-32"/><line x1="99.5" x2="99.5" y1="160" y2="-32"/><line x1="103.5" x2="103.5" y1="160" y2="-32"/><line x1="107.5" x2="107.5" y1="160" y2="-32"/><line x1="111.5" x2="111.5" y1="160" y2="-32"/><line x1="115.5" x2="115.5" y1="160" y2="-32"/><line x1="119.5" x2="119.5" y1="160" y2="-32"/><line x1="123.5" x2="123.5" y1="160" y2="-32"/><line x1="127.5" x2="127.5" y1="160" y2="-32"/><line x1="131.5" x2="131.5" y1="160" y2="-32"/><line x1="135.5" x2="135.5" y1="160" y2="-32"/><line x1="136.5" x2="136.5" y1="166" y2="-26"/><line x1="143.5" x2="143.5" y1="160" y2="-32"/><line x1="147.5" x2="147.5" y1="160" y2="-32"/><line x1="151.5" x2="151.5" y1="160" y2="-32"/><line x1="155.5" x2="155.5" y1="160" y2="-32"/></g><g fill="none" stroke="#000" stroke-miterlimit="10"><line x1="-32" x2="160" y1="-27.5" y2="-27.5"/><line x1="-32" x2="160" y1="-23.5" y2="-23.5"/><line x1="-32" x2="160" y1="-19.5" y2="-19.5"/><line x1="-32" x2="160" y1="-15.5" y2="-15.5"/><line x1="-32" x2="160" y1="-11.5" y2="-11.5"/><line x1="-32" x2="160" y1="-7.5" y2="-7.5"/><line x1="-32" x2="160" y1="-3.5" y2="-3.5"/><line x1="-32" x2="160" y1=".5" y2=".5"/><line x1="-32" x2="160" y1="4.5" y2="4.5"/><line x1="-32" x2="160" y1="8.5" y2="8.5"/><line x1="-32" x2="160" y1="12.5" y2="12.5"/><line x1="-32" x2="160" y1="16.5" y2="16.5"/><line x1="-32" x2="160" y1="20.5" y2="20.5"/><line x1="-32" x2="160" y1="24.5" y2="24.5"/><line x1="-32" x2="160" y1="28.5" y2="28.5"/><line x1="-32" x2="160" y1="32.5" y2="32.5"/><line x1="-32" x2="160" y1="36.5" y2="36.5"/><line x1="-32" x2="160" y1="40.5" y2="40.5"/><line x1="-32" x2="160" y1="44.5" y2="44.5"/><line x1="-32" x2="160" y1="48.5" y2="48.5"/><line x1="-32" x2="160" y1="52.5" y2="52.5"/><line x1="-32" x2="160" y1="56.5" y2="56.5"/><line x1="-32" x2="160" y1="60.5" y2="60.5"/><line x1="-32" x2="160" y1="64.5" y2="64.5"/><line x1="-32" x2="160" y1="68.5" y2="68.5"/><line x1="-32" x2="160" y1="72.5" y2="72.5"/><line x1="-32" x2="160" y1="76.5" y2="76.5"/><line x1="-32" x2="160" y1="80.5" y2="80.5"/><line x1="-32" x2="160" y1="84.5" y2="84.5"/><line x1="-32" x2="160" y1="88.5" y2="88.5"/><line x1="-32" x2="160" y1="92.5" y2="92.5"/><line x1="-32" x2="160" y1="96.5" y2="96.5"/><line x1="-32" x2="160" y1="100.5" y2="100.5"/><line x1="-32" x2="160" y1="104.5" y2="104.5"/><line x1="-32" x2="160" y1="108.5" y2="108.5"/><line x1="-32" x2="160" y1="112.5" y2="112.5"/><line x1="-32" x2="160" y1="116.5" y2="116.5"/><line x1="-32" x2="160" y1="120.5" y2="120.5"/><line x1="-32" x2="160" y1="124.5" y2="124.5"/><line x1="-32" x2="160" y1="128.5" y2="128.5"/><line x1="-32" x2="160" y1="132.5" y2="132.5"/><line x1="-32" x2="160" y1="136.5" y2="136.5"/><line x1="-32" x2="160" y1="140.5" y2="140.5"/><line x1="-32" x2="160" y1="144.5" y2="144.5"/><line x1="-32" x2="160" y1="148.5" y2="148.5"/><line x1="-32" x2="160" y1="152.5" y2="152.5"/><line x1="-32" x2="160" y1="156.5" y2="156.5"/></g><path d="m160-32v192h-192v-192h192-192v192h192v-192z"/></g></g><g fill="#F44336"><rect width="4" height="128" opacity=".3"/><rect x="124" width="4" height="128" opacity=".3"/><rect transform="matrix(-1.837e-16 1 -1 -1.837e-16 66 -62)" x="62" y="-58" width="4" height="120" opacity=".3"/><rect transform="matrix(-1.837e-16 1 -1 -1.837e-16 190 62)" x="62" y="66" width="4" height="120" opacity=".3"/></g></g></g></svg>

<svg width="128" height="128" style="enable-background:new 0 0 128 128;" xmlns="http://www.w3.org/2000/svg" xmlns:xlink="http://www.w3.org/1999/xlink">
  <g id="Layer_1">
    <g>
      <radialGradient id="SVGID_1_" cx="46.3333" cy="39.6667" gradientUnits="userSpaceOnUse" r="77.3333">
        <stop offset="0" style="stop-color:#FFDCB5"/>
        <stop offset="0.2414" style="stop-color:#F3CA9C"/>
        <stop offset="0.6022" style="stop-color:#E4B37D"/>
        <stop offset="0.803" style="stop-color:#DEAA71"/>
        <stop offset="0.9901" style="stop-color:#E0AB7B"/>
      </radialGradient>
      <path d="M107.3,66.42C105.68,44.51,90.87,6.59,63.21,6.59c-25.36,0-42.69,37.93-44.09,59.82 c-2.81,44,23.67,57.27,44.09,57.27C83.11,123.69,110.44,109.11,107.3,66.42z" style="fill:url(#SVGID_1_);"/>
      <g style="opacity:0.2;">
        <path d="M63.21,9.59c14.09,0,23.68,11.01,29.24,20.24c7.68,12.74,11.16,27.37,11.85,36.8 c1.29,17.49-2.74,31.8-11.64,41.38c-7.37,7.94-18.39,12.68-29.46,12.68c-11.5,0-22.24-4.41-29.45-12.1 c-8.9-9.49-12.82-23.62-11.65-41.98c0.72-11.26,5.67-25.67,12.61-36.72C39.49,22.31,49.52,9.59,63.21,9.59 M63.21,6.59 c-25.36,0-42.69,37.93-44.09,59.82c-2.81,44,23.67,57.27,44.09,57.27c19.9,0,47.23-14.57,44.09-57.27 C105.68,44.51,90.87,6.59,63.21,6.59L63.21,6.59z" style="fill:#424242;"/>
      </g>
    </g>
  </g>
  <g id="Layer_2" style="display:none;">
    <g style="display:inline;">
      <g style="opacity:0.6;">
        <circle cx="64" cy="64" r="28" style="opacity:0.61;fill:none;stroke:#000000;stroke-width:0.2625;stroke-miterlimit:10;"/>
        <line style="opacity:0.61;fill:none;stroke:#000000;stroke-miterlimit:10;" x1="83.5" x2="83.5" y1="0" y2="128"/>
        <line style="opacity:0.61;fill:none;stroke:#000000;stroke-miterlimit:10;" x1="43.5" x2="43.5" y1="0" y2="128"/>
        <line style="opacity:0.61;fill:none;stroke:#000000;stroke-miterlimit:10;" x1="63.5" x2="63.5" y1="0" y2="128"/>
        <line style="opacity:0.61;fill:none;stroke:#000000;stroke-miterlimit:10;" x1="128" x2="0" y1="64.5" y2="64.5"/>
        <line style="opacity:0.61;fill:none;stroke:#000000;stroke-miterlimit:10;" x1="128" x2="0" y1="44.5" y2="44.5"/>
        <line style="opacity:0.61;fill:none;stroke:#000000;stroke-miterlimit:10;" x1="128" x2="0" y1="83.5" y2="83.5"/>
        <line style="opacity:0.61;fill:none;stroke:#000000;stroke-width:0.25;stroke-miterlimit:10;" x1="128" x2="0" y1="128" y2="0"/>
        <line style="opacity:0.61;fill:none;stroke:#000000;stroke-width:0.25;stroke-miterlimit:10;" x1="0" x2="128" y1="128" y2="0"/>
        <g style="opacity:0.61;">
          <path d="M64,4.26c32.94,0,59.74,26.8,59.74,59.74S96.94,123.74,64,123.74S4.26,96.94,4.26,64S31.06,4.26,64,4.26 M64,4 C30.86,4,4,30.86,4,64s26.86,60,60,60s60-26.86,60-60S97.14,4,64,4L64,4z"/>
        </g>
        <path d="M115.5,108.47c0,4.43-3.59,8.03-8.03,8.03H19.53 c-4.43,0-8.03-3.59-8.03-8.03V20.53c0-4.43,3.59-8.03,8.03-8.03h87.94c4.43,0,8.03,3.59,8.03,8.03V108.47z" style="opacity:0.61;fill:none;stroke:#000000;stroke-miterlimit:10;"/>
        <path d="M107.5,116.5c0,4.42-3.58,8-8,8h-72 c-4.42,0-8-3.58-8-8v-104c0-4.42,3.58-8,8-8h72c4.42,0,8,3.58,8,8V116.5z" style="opacity:0.61;fill:none;stroke:#000000;stroke-miterlimit:10;"/>
        <path d="M123.5,98.27c0,5.65-4.58,10.23-10.23,10.23H13.73 c-5.65,0-10.23-4.58-10.23-10.23V30.73c0-5.65,4.58-10.23,10.23-10.23h99.54c5.65,0,10.23,4.58,10.23,10.23V98.27z" style="opacity:0.61;fill:none;stroke:#000000;stroke-miterlimit:10;"/>
      </g>
      <g>
        <g style="opacity:0.2;">
          <defs>
            <rect id="SVGID_2_" height="128" style="opacity:0.2;" width="128" x="0"/>
          </defs>
          <clipPath id="SVGID_3_">
            <use style="overflow:visible;" xlink:href="#SVGID_2_"/>
          </clipPath>
          <g style="clip-path:url(#SVGID_3_);">
            <g>
              <line style="fill:none;stroke:#000000;stroke-miterlimit:10;" x1="-28.5" x2="-28.5" y1="160" y2="-32"/>
              <line style="fill:none;stroke:#000000;stroke-miterlimit:10;" x1="-24.5" x2="-24.5" y1="160" y2="-32"/>
              <line style="fill:none;stroke:#000000;stroke-miterlimit:10;" x1="-20.5" x2="-20.5" y1="160" y2="-32"/>
              <line style="fill:none;stroke:#000000;stroke-miterlimit:10;" x1="-16.5" x2="-16.5" y1="160" y2="-32"/>
              <line style="fill:none;stroke:#000000;stroke-miterlimit:10;" x1="-12.5" x2="-12.5" y1="160" y2="-32"/>
              <line style="fill:none;stroke:#000000;stroke-miterlimit:10;" x1="-8.5" x2="-8.5" y1="160" y2="-32"/>
              <line style="fill:none;stroke:#000000;stroke-miterlimit:10;" x1="-4.5" x2="-4.5" y1="160" y2="-32"/>
              <line style="fill:none;stroke:#000000;stroke-miterlimit:10;" x1="-0.5" x2="-0.5" y1="160" y2="-32"/>
              <line style="fill:none;stroke:#000000;stroke-miterlimit:10;" x1="3.5" x2="3.5" y1="160" y2="-32"/>
              <line style="fill:none;stroke:#000000;stroke-miterlimit:10;" x1="7.5" x2="7.5" y1="160" y2="-32"/>
              <line style="fill:none;stroke:#000000;stroke-miterlimit:10;" x1="11.5" x2="11.5" y1="160" y2="-32"/>
              <line style="fill:none;stroke:#000000;stroke-miterlimit:10;" x1="15.5" x2="15.5" y1="160" y2="-32"/>
              <line style="fill:none;stroke:#000000;stroke-miterlimit:10;" x1="19.5" x2="19.5" y1="160" y2="-32"/>
              <line style="fill:none;stroke:#000000;stroke-miterlimit:10;" x1="23.5" x2="23.5" y1="160" y2="-32"/>
              <line style="fill:none;stroke:#000000;stroke-miterlimit:10;" x1="27.5" x2="27.5" y1="160" y2="-32"/>
              <line style="fill:none;stroke:#000000;stroke-miterlimit:10;" x1="31.5" x2="31.5" y1="160" y2="-32"/>
              <line style="fill:none;stroke:#000000;stroke-miterlimit:10;" x1="35.5" x2="35.5" y1="160" y2="-32"/>
              <line style="fill:none;stroke:#000000;stroke-miterlimit:10;" x1="39.5" x2="39.5" y1="160" y2="-32"/>
              <line style="fill:none;stroke:#000000;stroke-miterlimit:10;" x1="43.5" x2="43.5" y1="160" y2="-32"/>
              <line style="fill:none;stroke:#000000;stroke-miterlimit:10;" x1="47.5" x2="47.5" y1="160" y2="-32"/>
              <line style="fill:none;stroke:#000000;stroke-miterlimit:10;" x1="51.5" x2="51.5" y1="160" y2="-32"/>
              <line style="fill:none;stroke:#000000;stroke-miterlimit:10;" x1="55.5" x2="55.5" y1="160" y2="-32"/>
              <line style="fill:none;stroke:#000000;stroke-miterlimit:10;" x1="59.5" x2="59.5" y1="160" y2="-32"/>
              <line style="fill:none;stroke:#000000;stroke-miterlimit:10;" x1="63.5" x2="63.5" y1="160" y2="-32"/>
              <line style="fill:none;stroke:#000000;stroke-miterlimit:10;" x1="67.5" x2="67.5" y1="160" y2="-32"/>
              <line style="fill:none;stroke:#000000;stroke-miterlimit:10;" x1="71.5" x2="71.5" y1="160" y2="-32"/>
              <line style="fill:none;stroke:#000000;stroke-miterlimit:10;" x1="75.5" x2="75.5" y1="160" y2="-32"/>
              <line style="fill:none;stroke:#000000;stroke-miterlimit:10;" x1="79.5" x2="79.5" y1="160" y2="-32"/>
              <line style="fill:none;stroke:#000000;stroke-miterlimit:10;" x1="83.5" x2="83.5" y1="160" y2="-32"/>
              <line style="fill:none;stroke:#000000;stroke-miterlimit:10;" x1="87.5" x2="87.5" y1="160" y2="-32"/>
              <line style="fill:none;stroke:#000000;stroke-miterlimit:10;" x1="91.5" x2="91.5" y1="160" y2="-32"/>
              <line style="fill:none;stroke:#000000;stroke-miterlimit:10;" x1="95.5" x2="95.5" y1="160" y2="-32"/>
              <line style="fill:none;stroke:#000000;stroke-miterlimit:10;" x1="99.5" x2="99.5" y1="160" y2="-32"/>
              <line style="fill:none;stroke:#000000;stroke-miterlimit:10;" x1="103.5" x2="103.5" y1="160" y2="-32"/>
              <line style="fill:none;stroke:#000000;stroke-miterlimit:10;" x1="107.5" x2="107.5" y1="160" y2="-32"/>
              <line style="fill:none;stroke:#000000;stroke-miterlimit:10;" x1="111.5" x2="111.5" y1="160" y2="-32"/>
              <line style="fill:none;stroke:#000000;stroke-miterlimit:10;" x1="115.5" x2="115.5" y1="160" y2="-32"/>
              <line style="fill:none;stroke:#000000;stroke-miterlimit:10;" x1="119.5" x2="119.5" y1="160" y2="-32"/>
              <line style="fill:none;stroke:#000000;stroke-miterlimit:10;" x1="123.5" x2="123.5" y1="160" y2="-32"/>
              <line style="fill:none;stroke:#000000;stroke-miterlimit:10;" x1="127.5" x2="127.5" y1="160" y2="-32"/>
              <line style="fill:none;stroke:#000000;stroke-miterlimit:10;" x1="131.5" x2="131.5" y1="160" y2="-32"/>
              <line style="fill:none;stroke:#000000;stroke-miterlimit:10;" x1="135.5" x2="135.5" y1="160" y2="-32"/>
              <line style="fill:none;stroke:#000000;stroke-miterlimit:10;" x1="136.5" x2="136.5" y1="166" y2="-26"/>
              <line style="fill:none;stroke:#000000;stroke-miterlimit:10;" x1="143.5" x2="143.5" y1="160" y2="-32"/>
              <line style="fill:none;stroke:#000000;stroke-miterlimit:10;" x1="147.5" x2="147.5" y1="160" y2="-32"/>
              <line style="fill:none;stroke:#000000;stroke-miterlimit:10;" x1="151.5" x2="151.5" y1="160" y2="-32"/>
              <line style="fill:none;stroke:#000000;stroke-miterlimit:10;" x1="155.5" x2="155.5" y1="160" y2="-32"/>
            </g>
            <g>
              <line style="fill:none;stroke:#000000;stroke-miterlimit:10;" x1="-32" x2="160" y1="-27.5" y2="-27.5"/>
              <line style="fill:none;stroke:#000000;stroke-miterlimit:10;" x1="-32" x2="160" y1="-23.5" y2="-23.5"/>
              <line style="fill:none;stroke:#000000;stroke-miterlimit:10;" x1="-32" x2="160" y1="-19.5" y2="-19.5"/>
              <line style="fill:none;stroke:#000000;stroke-miterlimit:10;" x1="-32" x2="160" y1="-15.5" y2="-15.5"/>
              <line style="fill:none;stroke:#000000;stroke-miterlimit:10;" x1="-32" x2="160" y1="-11.5" y2="-11.5"/>
              <line style="fill:none;stroke:#000000;stroke-miterlimit:10;" x1="-32" x2="160" y1="-7.5" y2="-7.5"/>
              <line style="fill:none;stroke:#000000;stroke-miterlimit:10;" x1="-32" x2="160" y1="-3.5" y2="-3.5"/>
              <line style="fill:none;stroke:#000000;stroke-miterlimit:10;" x1="-32" x2="160" y1="0.5" y2="0.5"/>
              <line style="fill:none;stroke:#000000;stroke-miterlimit:10;" x1="-32" x2="160" y1="4.5" y2="4.5"/>
              <line style="fill:none;stroke:#000000;stroke-miterlimit:10;" x1="-32" x2="160" y1="8.5" y2="8.5"/>
              <line style="fill:none;stroke:#000000;stroke-miterlimit:10;" x1="-32" x2="160" y1="12.5" y2="12.5"/>
              <line style="fill:none;stroke:#000000;stroke-miterlimit:10;" x1="-32" x2="160" y1="16.5" y2="16.5"/>
              <line style="fill:none;stroke:#000000;stroke-miterlimit:10;" x1="-32" x2="160" y1="20.5" y2="20.5"/>
              <line style="fill:none;stroke:#000000;stroke-miterlimit:10;" x1="-32" x2="160" y1="24.5" y2="24.5"/>
              <line style="fill:none;stroke:#000000;stroke-miterlimit:10;" x1="-32" x2="160" y1="28.5" y2="28.5"/>
              <line style="fill:none;stroke:#000000;stroke-miterlimit:10;" x1="-32" x2="160" y1="32.5" y2="32.5"/>
              <line style="fill:none;stroke:#000000;stroke-miterlimit:10;" x1="-32" x2="160" y1="36.5" y2="36.5"/>
              <line style="fill:none;stroke:#000000;stroke-miterlimit:10;" x1="-32" x2="160" y1="40.5" y2="40.5"/>
              <line style="fill:none;stroke:#000000;stroke-miterlimit:10;" x1="-32" x2="160" y1="44.5" y2="44.5"/>
              <line style="fill:none;stroke:#000000;stroke-miterlimit:10;" x1="-32" x2="160" y1="48.5" y2="48.5"/>
              <line style="fill:none;stroke:#000000;stroke-miterlimit:10;" x1="-32" x2="160" y1="52.5" y2="52.5"/>
              <line style="fill:none;stroke:#000000;stroke-miterlimit:10;" x1="-32" x2="160" y1="56.5" y2="56.5"/>
              <line style="fill:none;stroke:#000000;stroke-miterlimit:10;" x1="-32" x2="160" y1="60.5" y2="60.5"/>
              <line style="fill:none;stroke:#000000;stroke-miterlimit:10;" x1="-32" x2="160" y1="64.5" y2="64.5"/>
              <line style="fill:none;stroke:#000000;stroke-miterlimit:10;" x1="-32" x2="160" y1="68.5" y2="68.5"/>
              <line style="fill:none;stroke:#000000;stroke-miterlimit:10;" x1="-32" x2="160" y1="72.5" y2="72.5"/>
              <line style="fill:none;stroke:#000000;stroke-miterlimit:10;" x1="-32" x2="160" y1="76.5" y2="76.5"/>
              <line style="fill:none;stroke:#000000;stroke-miterlimit:10;" x1="-32" x2="160" y1="80.5" y2="80.5"/>
              <line style="fill:none;stroke:#000000;stroke-miterlimit:10;" x1="-32" x2="160" y1="84.5" y2="84.5"/>
              <line style="fill:none;stroke:#000000;stroke-miterlimit:10;" x1="-32" x2="160" y1="88.5" y2="88.5"/>
              <line style="fill:none;stroke:#000000;stroke-miterlimit:10;" x1="-32" x2="160" y1="92.5" y2="92.5"/>
              <line style="fill:none;stroke:#000000;stroke-miterlimit:10;" x1="-32" x2="160" y1="96.5" y2="96.5"/>
              <line style="fill:none;stroke:#000000;stroke-miterlimit:10;" x1="-32" x2="160" y1="100.5" y2="100.5"/>
              <line style="fill:none;stroke:#000000;stroke-miterlimit:10;" x1="-32" x2="160" y1="104.5" y2="104.5"/>
              <line style="fill:none;stroke:#000000;stroke-miterlimit:10;" x1="-32" x2="160" y1="108.5" y2="108.5"/>
              <line style="fill:none;stroke:#000000;stroke-miterlimit:10;" x1="-32" x2="160" y1="112.5" y2="112.5"/>
              <line style="fill:none;stroke:#000000;stroke-miterlimit:10;" x1="-32" x2="160" y1="116.5" y2="116.5"/>
              <line style="fill:none;stroke:#000000;stroke-miterlimit:10;" x1="-32" x2="160" y1="120.5" y2="120.5"/>
              <line style="fill:none;stroke:#000000;stroke-miterlimit:10;" x1="-32" x2="160" y1="124.5" y2="124.5"/>
              <line style="fill:none;stroke:#000000;stroke-miterlimit:10;" x1="-32" x2="160" y1="128.5" y2="128.5"/>
              <line style="fill:none;stroke:#000000;stroke-miterlimit:10;" x1="-32" x2="160" y1="132.5" y2="132.5"/>
              <line style="fill:none;stroke:#000000;stroke-miterlimit:10;" x1="-32" x2="160" y1="136.5" y2="136.5"/>
              <line style="fill:none;stroke:#000000;stroke-miterlimit:10;" x1="-32" x2="160" y1="140.5" y2="140.5"/>
              <line style="fill:none;stroke:#000000;stroke-miterlimit:10;" x1="-32" x2="160" y1="144.5" y2="144.5"/>
              <line style="fill:none;stroke:#000000;stroke-miterlimit:10;" x1="-32" x2="160" y1="148.5" y2="148.5"/>
              <line style="fill:none;stroke:#000000;stroke-miterlimit:10;" x1="-32" x2="160" y1="152.5" y2="152.5"/>
              <line style="fill:none;stroke:#000000;stroke-miterlimit:10;" x1="-32" x2="160" y1="156.5" y2="156.5"/>
            </g>
            <path d="M160-32v192H-32V-32H160 M160-32H-32v192h192V-32L160-32z"/>
          </g>
        </g>
        <g>
          <rect height="128" style="opacity:0.3;fill:#F44336;" width="4" x="0"/>
          <rect height="128" style="opacity:0.3;fill:#F44336;" width="4" x="124"/>
          <rect height="120" style="opacity:0.3;fill:#F44336;" transform="matrix(-1.836970e-16 1 -1 -1.836970e-16 66 -62)" width="4" x="62" y="-58"/>
          <rect height="120" style="opacity:0.3;fill:#F44336;" transform="matrix(-1.836970e-16 1 -1 -1.836970e-16 190 62)" width="4" x="62" y="66"/>
        </g>
      </g>
    </g>
  </g>
</svg>
